X: 37671
T: Snowy Path, The
R: slip jig
M: 9/8
K: Dmajor
|"D"F2A B2F A2F|"G"G2B d2e dBA|"D"F2A B2F A2F|"Em"E2D E2F GFE|
"D"F2A B2F A2F|"G"G2B d2e dBA|"D"F2A B2F A2F|"Em"E2D E2F GAB||
"A"c3 c2e d2c|"G"B2G B2c d2e|"Bm"f3 f2e d2B|"D"A2G F2G A2B|
"A"c3 c2e d2c|"G"B2G B2c d2e|"D"d2A B2F A2F|"Em"E2D E2F GFE||

